Breeze Round Light/actions/24/edit-image-face-recognize.svg

<svg xmlns="http://www.w3.org/2000/svg" viewBox="0 0 24 24" width="24" height="24">
  <defs id="defs3051">
    <style type="text/css" id="current-color-scheme">.ColorScheme-Text {color:#fcfcfc;}</style>
  </defs>
  <g transform="translate(1,1)">
    <path style="fill:currentColor;fill-opacity:1;stroke:none" d="m 6,3 c 0,0 -3,0 -3,3 0,3 0,7 0,10 0,3 3,3 3,3 h 10 c 0,0 3,0 3,-3 0,-3 0,-7 0,-10 0,-3 -3,-3 -3,-3 z m 0,1 h 10 c 0,0 2,0 2,2 0,2 0,8 0,10 0,2 -2,2 -2,2 H 6 C 6,18 4,18 4,16 4,14 4,8 4,6 4,4 6,4 6,4 Z M 5,5 V 6 8 H 6 V 6 H 8 V 5 Z m 9,0 v 1 h 2 v 2 h 1 V 6 5 Z m -3.089844,1.78125 c -0.607499,0 -1.3155471,0.1355473 -1.8105466,0.5292969 L 9.3457031,8.0527344 C 9.6044529,7.8839845 10.099923,7.6132812 10.763672,7.6132812 c 0.731249,0 1.227031,0.3034383 1.238281,1.0234376 0,1.0799989 -1.564453,2.8464072 -1.564453,4.1289062 h 0.472656 c 0.821249,-1.844998 1.990235,-2.710783 1.990235,-4.2070312 0,-1.1474989 -0.831486,-1.7773438 -1.990235,-1.7773438 z m -0.158203,6.986328 c -0.483749,0 -0.730469,0.360704 -0.730469,0.720703 0,0.36 0.24672,0.730469 0.730469,0.730469 0.48375,0 0.732422,-0.370469 0.732422,-0.730469 0,-0.359999 -0.248672,-0.720703 -0.732422,-0.720703 z M 5,14 v 2 1 H 8 V 16 H 6 v -2 z m 11,0 v 2 h -2 v 1 h 3 v -1 -2 z" class="ColorScheme-Text"/>
  </g>
</svg>

<svg xmlns="http://www.w3.org/2000/svg" viewBox="0 0 24 24">
  <defs id="defs3051">
    <style type="text/css" id="current-color-scheme">
      .ColorScheme-Text {
        color:#232629;
      }
      </style>
  </defs><g transform="translate(1,1)">
 <path 
    style="fill:currentColor;fill-opacity:1;stroke:none" 
	d="m3 3v1 15h1 15v-1-15h-16m1 1h14v14h-14v-14m1 1v1 2h1v-2h2v-1h-3m9 0v1h2v2h1v-2-1h-3m-3.089844 1.78125c-.6075 0-1.315547.135547-1.810547.529297l.246094.742188c.25875-.16875.754219-.439453 1.417969-.439453.73125 0 1.227031.303438 1.238281 1.023438 0 1.08-1.564453 2.846406-1.564453 4.128906h.472656c.82125-1.845 1.990235-2.710781 1.990235-4.207031 0-1.1475-.831485-1.777344-1.990235-1.777344m-.158203 6.986328c-.48375 0-.730469.360703-.730469.720703 0 .36.246719.730469.730469.730469.48375 0 .732422-.370469.732422-.730469 0-.36-.248672-.720703-.732422-.720703m-5.751953.232422v2 1h3v-1h-2v-2h-1m11 0v2h-2v1h3v-1-2h-1"
    class="ColorScheme-Text"
    />  
</g></svg>
